build/flags/Sweden.svg

<svg xmlns="http://www.w3.org/2000/svg" fill="none" viewBox="0 0 28 28" focusable="false"><path fill="none" d="M0 0h28v28H0z"/><rect width="28" height="20" y="4" fill="#FFF" rx="3"/><rect width="28" height="20" y="4" rx="3"/><mask id="Sweden_svg__a" width="28" height="20" x="0" y="4" mask-type="alpha" maskUnits="userSpaceOnUse"><rect width="28" height="20" y="4" fill="#FFF" rx="3"/><rect width="28" height="20" y="4" stroke="#979797" stroke-opacity="0" stroke-width="0" rx="3"/></mask><g mask="url(#Sweden_svg__a)"><path fill="#157CBB" d="M0 4h28v20H0z"/><path d="M0 4h28v20H0z"/></g><g mask="url(#Sweden_svg__a)"><path fill="#FFD34D" fill-rule="evenodd" d="M0 16h8v8h4v-8h16v-4H12V4H8v8H0z"/><path d="M8 16v8h4v-8h16v-4H12V4H8v8H0v4z"/></g></svg>

<svg xmlns="http://www.w3.org/2000/svg" fill="none" viewBox="0 0 28 28" focusable="false"><defs><filter id="Sweden_svg__a"><feColorMatrix values="0 0 0 0 1 0 0 0 0 1 0 0 0 0 1 0 0 0 1 0"/></filter></defs><mask id="Sweden_svg__b" width="28" height="20" x="0" y="4" maskUnits="userSpaceOnUse"><g filter="url(#Sweden_svg__a)"><rect width="28" height="20" y="4" fill="#FFF" rx="3"/><rect width="28" height="20" y="4" stroke="#969696" stroke-opacity="0" stroke-width="0" rx="3"/></g></mask><path fill="none" d="M0 0H28V28H0z"/><rect width="28" height="20" y="4" fill="#FFF" rx="3"/><rect width="28" height="20" y="4" rx="3"/><g mask="url(#Sweden_svg__b)"><path fill="#157CBB" d="M0 4H28V24H0z"/><path d="M0 4H28V24H0z"/><path fill="#FFD34D" fill-rule="evenodd" d="M0 16L8 16L8 24L12 24L12 16L28 16L28 12L12 12L12 4L8 4L8 12L0 12L0 16Z"/><path d="M8 16L8 24L12 24L12 16L28 16L28 12L12 12L12 4L8 4L8 12L0 12L0 16L8 16Z"/></g></svg>
